packages/components/icon/src/assets/icons/flag.svg

<svg width="24" height="24" viewBox="0 0 24 24" fill="none" xmlns="http://www.w3.org/2000/svg">
<path fill-rule="evenodd" clip-rule="evenodd" d="M8 5C7.44772 5 7 5.44772 7 6V18H9V6C9 5.44772 8.55228 5 8 5ZM10.0279 5.98369C10.0279 5.98369 15.5485 4.42456 15.5485 5.5064C15.5485 5.5533 15.5316 5.6432 15.5105 5.75518C15.4315 6.17513 15.294 6.9056 15.7712 6.8428C16.8531 6.71552 18.8577 6.63597 18.8577 6.63597C18.8577 6.63597 19.2077 7.36781 18.8099 8.73602C18.4122 10.1042 18.7304 12.4588 18.7304 12.4588C18.7304 12.4588 14.3394 13.3816 14.6894 12.252C15.119 10.8997 12.5257 11.7111 11.0302 12.2838C10.4416 12.5066 10.0279 12.3316 10.0279 12.3316V5.98369Z" fill="currentColor"/>
</svg>

<svg viewBox="0 0 24 24" fill="none" xmlns="http://www.w3.org/2000/svg"><path fill-rule="evenodd" clip-rule="evenodd" d="M8 5a1 1 0 0 0-1 1v12h2V6a1 1 0 0 0-1-1Zm2.028.984s5.52-1.56 5.52-.478c0 .047-.016.137-.037.25-.08.42-.217 1.15.26 1.087 1.082-.127 3.087-.207 3.087-.207s.35.732-.048 2.1c-.398 1.368-.08 3.723-.08 3.723s-4.39.923-4.04-.207c.429-1.352-2.164-.54-3.66.032-.588.223-1.002.048-1.002.048V5.984Z" fill="currentColor"/></svg>
